src/lib/packages/icons/src/assets/line/home-roof.svg

<svg width="24" height="24" viewBox="0 0 24 24" fill="none" xmlns="http://www.w3.org/2000/svg">
<path d="M21.477 9.08502L14.0649 2.98907C12.8679 2.00707 11.133 2.00607 9.93598 2.98907L2.52399 9.08404C2.20499 9.34704 2.15796 9.81907 2.42096 10.1401C2.68396 10.4611 3.15699 10.5051 3.47699 10.2431L4.24994 9.60711V18.0001C4.24994 20.4181 5.58194 21.7501 7.99994 21.7501H15.9999C18.4179 21.7501 19.7499 20.4181 19.7499 18.0001V9.60711L20.5229 10.2431C20.6629 10.3581 20.8319 10.414 20.9999 10.414C21.2159 10.414 21.4309 10.321 21.5789 10.141C21.8429 9.82005 21.796 9.34802 21.477 9.08502ZM13.7499 20.2501H10.2499V16.5001C10.2499 15.5351 11.0349 14.7501 11.9999 14.7501C12.9649 14.7501 13.7499 15.5351 13.7499 16.5001V20.2501ZM18.2499 18.0001C18.2499 19.5771 17.5769 20.2501 15.9999 20.2501H15.2499V16.5001C15.2499 14.7081 13.7919 13.2501 11.9999 13.2501C10.2079 13.2501 8.74994 14.7081 8.74994 16.5001V20.2501H7.99994C6.42294 20.2501 5.74994 19.5771 5.74994 18.0001V8.37408L10.889 4.14911C11.532 3.62011 12.469 3.62011 13.112 4.14911L18.2509 8.37506V18.0001H18.2499Z" fill="currentColor"/>
</svg>

<svg xmlns="http://www.w3.org/2000/svg" width="24" height="24" fill="none"><path fill="currentColor" d="m21.477 9.085-7.412-6.096a3.26 3.26 0 0 0-4.129 0L2.524 9.084a.751.751 0 0 0 .953 1.16l.773-.637V18c0 2.418 1.332 3.75 3.75 3.75h8c2.418 0 3.75-1.332 3.75-3.75V9.607l.773.636a.749.749 0 0 0 1.056-.102.75.75 0 0 0-.102-1.056ZM13.75 20.25h-3.5V16.5c0-.965.785-1.75 1.75-1.75s1.75.785 1.75 1.75v3.75Zm4.5-2.25c0 1.577-.673 2.25-2.25 2.25h-.75V16.5A3.254 3.254 0 0 0 12 13.25a3.254 3.254 0 0 0-3.25 3.25v3.75H8c-1.577 0-2.25-.673-2.25-2.25V8.374l5.139-4.225a1.755 1.755 0 0 1 2.223 0l5.139 4.226V18h-.001Z"/></svg>
